X:1
T: Lady Wallace
C:
R:Reel
Q: 232
K:Gm
M:4/4
L:1/8
|:d|BA1/2G1/2 G,G B,G Dd|cf dB AF fc|B1/2A1/2G G,G B,G Dd|cD d1/2c1/2B1/2A1/2 BG Gd|
BA1/2G1/2 G,G B,G Dd|cf dB AF fc|B1/2A1/2G G,G B,G Dd|cD d1/2c1/2B1/2A1/2 BG Gg|
b1/2a1/2g Gd gd bg|af cB AF af|g^f gd Bd gb|a^f df g1/2g1/2g fa|
bg da ge cg|fB gB AF fc|dB AG ec BA|dD d1/2c1/2B1/2A1/2B GG:|
